<?xml version="1.0" encoding="UTF-8"?>
<!--
  Forest sample level for the Pixhaus Unity sample project.

  Map: 32 columns x 16 rows, 16x16 tiles.
  Tileset: forest.tsx (17 tiles, firstgid=1).

  Tile GIDs (= atlas local id + 1):
    0  = empty
    1  = grass          7  = tree top       13 = fence-h
    2  = dirt           8  = tree trunk     14 = fence-v
    3  = stone floor    9  = tall grass     15 = chest-closed
    4  = water          10 = rock           16 = chest-open
    5  = water-2        11 = flowers        17 = wall stone
    6  = water-3        12 = path stone

  Layer 1 (ground): terrain base — grass, paths, water, trees.
  Layer 2 (decoration): sparse items placed on top of terrain.
-->
<map version="1.10" tiledversion="1.10.0"
     orientation="orthogonal" renderorder="right-down"
     width="32" height="16"
     tilewidth="16" tileheight="16"
     infinite="0" nextlayerid="3" nextobjectid="1">

  <tileset firstgid="1" source="forest.tsx"/>

  <!-- Ground layer: grass(1), dirt(2), stone(3), water(4), tree-top(7), tree-trunk(8), tall-grass(9), rock(10) -->
  <layer id="1" name="ground" width="32" height="16">
    <data encoding="csv">
1,1,1,1,1,1,1,1,1,1,1,1,1,1,1,1,1,1,1,1,1,1,1,1,1,1,1,1,1,1,1,1,
7,1,7,1,1,7,1,1,1,7,1,1,7,1,1,1,7,1,1,7,1,1,1,7,1,1,7,1,1,1,7,1,
8,1,8,1,1,8,1,1,1,8,1,1,8,1,1,1,8,1,1,8,1,1,1,8,1,1,8,1,1,1,8,1,
1,1,1,9,1,1,1,9,1,1,1,1,9,1,1,9,1,1,9,1,1,1,9,1,1,9,1,1,9,1,1,1,
3,3,3,3,3,3,3,3,3,3,3,3,3,3,3,3,3,3,3,3,3,3,3,3,3,3,3,3,3,3,3,3,
1,1,10,1,1,1,1,1,1,1,1,1,1,1,1,1,4,4,4,4,4,4,1,1,1,1,1,1,1,1,10,1,
1,1,1,1,1,1,1,1,1,1,1,1,1,1,1,1,4,4,4,4,4,4,1,1,1,1,1,1,1,1,1,1,
1,1,1,1,1,1,1,1,1,1,1,1,1,1,1,1,4,4,4,4,4,4,1,1,1,1,1,1,1,1,1,1,
1,1,1,1,1,1,1,1,1,1,1,1,1,1,1,1,4,4,4,4,4,4,1,1,1,1,1,1,1,1,1,1,
1,1,1,1,1,1,1,1,1,1,1,1,1,1,1,1,1,1,1,1,1,1,1,1,1,1,1,1,1,1,1,1,
2,2,2,2,2,2,2,2,2,2,2,2,2,2,2,2,2,2,2,2,2,2,2,2,2,2,2,2,2,2,2,2,
1,10,1,1,1,1,1,1,10,1,1,1,1,1,1,1,1,1,1,1,1,1,1,10,1,1,1,1,1,1,1,1,
1,1,1,9,1,1,9,1,1,1,1,9,1,1,1,9,1,1,9,1,1,1,9,1,1,1,9,1,1,9,1,1,
1,1,1,1,1,1,1,1,1,1,1,1,1,1,1,1,1,1,1,1,1,1,1,1,1,1,1,1,1,1,1,1,
7,1,7,1,1,7,1,1,1,7,1,1,7,1,1,1,7,1,1,7,1,1,1,7,1,1,7,1,1,1,7,1,
8,1,8,1,1,8,1,1,1,8,1,1,8,1,1,1,8,1,1,8,1,1,1,8,1,1,8,1,1,1,8,1
    </data>
  </layer>

  <!-- Decoration layer: chest(15), flowers(11) placed on top of terrain -->
  <layer id="2" name="decoration" width="32" height="16">
    <data encoding="csv">
0,0,0,0,0,0,0,0,0,0,0,0,0,0,0,0,0,0,0,0,0,0,0,0,0,0,0,0,0,0,0,0,
0,0,0,0,0,0,0,0,0,0,0,0,0,0,0,0,0,0,0,0,0,0,0,0,0,0,0,0,0,0,0,0,
0,0,0,0,0,0,0,0,0,0,0,0,0,0,0,0,0,0,0,0,0,0,0,0,0,0,0,0,0,0,0,0,
0,0,0,0,0,0,0,0,0,0,0,0,0,0,0,0,0,0,0,0,0,0,0,0,0,0,0,0,0,0,0,0,
0,0,0,0,0,0,0,0,0,0,0,0,0,0,0,0,0,0,0,0,0,0,0,0,0,0,0,0,0,0,0,0,
0,0,0,0,0,0,0,0,0,0,0,0,0,0,0,0,0,0,0,0,0,0,0,0,0,0,0,0,0,0,0,0,
0,0,0,0,0,0,0,0,0,0,0,0,0,0,0,0,0,0,0,0,0,0,0,0,0,0,0,0,0,0,0,0,
0,0,0,0,0,15,0,0,0,0,0,0,0,0,0,0,0,0,0,0,0,0,0,0,0,0,0,0,0,0,0,0,
0,0,0,0,0,0,0,11,0,0,0,0,0,0,0,0,0,0,0,0,0,0,0,0,11,0,0,11,0,0,0,0,
0,0,0,0,0,0,0,0,0,0,0,0,0,0,0,0,0,0,0,0,0,0,0,0,0,0,0,0,0,0,0,0,
0,0,0,0,0,0,0,0,0,0,0,0,0,0,0,0,0,0,0,0,0,0,0,0,0,0,0,0,0,0,0,0,
0,0,0,0,0,0,0,0,0,0,0,0,0,0,0,0,0,0,0,0,0,0,0,0,0,0,15,0,0,0,0,0,
0,0,0,0,11,0,0,0,0,0,0,0,0,11,0,0,0,0,0,0,0,0,0,0,0,0,0,0,11,0,0,0,
0,0,0,0,0,0,0,0,0,0,0,0,0,0,0,0,0,0,0,0,0,0,0,0,0,0,0,0,0,0,0,0,
0,0,0,0,0,0,0,0,0,0,0,0,0,0,0,0,0,0,0,0,0,0,0,0,0,0,0,0,0,0,0,0,
0,0,0,0,0,0,0,0,0,0,0,0,0,0,0,0,0,0,0,0,0,0,0,0,0,0,0,0,0,0,0,0
    </data>
  </layer>

</map>
